X:553
T: EINSAM WANDL ICH
N: F1076
O: Europa, Mitteleuropa, Deutschland
R: Trost - Lied
M: 4/4
L: 1/8
K: Ab
cc | c3AA2GF | =E2E2z2
FF | G3Gc3B | A4z2
=AA | B3Bf3f | f2c2
d2c2 | A3FA2G2 | F4z2
dc | cB=ABABfe | e3cAz
dc | cBAGFEed | c4
a3g | g2f2f_gfe | d2d2
f2ed | cedBA2cB | A4z2

@@@ Tune index: 5984
